X:121
T:Tumblers Hornpipe. GS.121
T:Washington Hp,aka. GS.121
T:Y Fasged Wyau,aka. GS.121
M:2/2
L:1/8
Q:1/2=90
S:George Spencer m/s, Leeds,1831
R:.Hornpipe
O:England
A:Leeds
N:aka Basket of Eggs/Egg Basket/William Andrews Hp
N:C(Sheepstor,Dartmoor)and a version from Quebec, title
N:unknown.Also Danielâ€™s Hp,J.Clare msâ€¦â€™George Spencer Leeds 1831â€²
N:written on stave after music
H:1831
Z:vmp.Cherri Graebe
K:Bb major
Bcde fBAB | gBaB bBAB | GBFB EBDB | edcB BAGF |!
Bcde fBAB | gBaB gBAB | GBFB EBDB | ecBA B4 ||!
fBAB gBAB | fBAB gBAB | gbba gfge | edcB BAGF |!
Bcde fBAB |gBaB bBAB | GBFB EBDB | dcBA â€ crâ€B4|]

